X: 29773
T: O Steer Her Up, An Haud Her Gaun
R: polka
M: 2/4
K: Dmixolydian
dd f>e|df A>G|FA AG/F/|Ec A>c|
dd f>e|df Ag|Bg ed/^c/|d2- d:|
dA F/G/A/F/|dA F2|Ec- cE|GA/G/ Ec/G/|
d>A FA|d/c/A/c/ F>g|f/e/d/f/ e/d/^c|d2- d:|

